X: 10634
T: WHITE COCKADE
C:
%R: march
B: Elias Howe "The Musician's Companion" Part 1 1842 p.63 #4
S: http://imslp.org/wiki/The_Musician's_Companion_(Howe,_Elias)
Z: 2015 John Chambers <jc:trillian.mit.edu>
M: C|
L: 1/8
K: G
% - - - - - - - - - - - - - - - - - - - - - - - - -
GA |\
B2B2 B2AG | d2B2 B2g2 | d2B2 B2AG | F2A2 A2GA |\
B2B2 B2AG | B2d2 g3a  | bagf efge | d2B2 B2  :|
|: Bc |\
d2B2 g2B2 | d2B2 B2Bc | d2B2 g2fg | a2A2 A2GA |\
B2B2 B2AG | B2d2 g3a  | bagf efge | d2B2 B2  :|
% - - - - - - - - - - - - - - - - - - - - - - - - -
